X: 180
T:the Duchess of Roxburghes' Strathspey
B:William Marshall's Scottish Airs, Melodies, Strathspeys, Reels &c (1822)
C:William Marshall
L:1/8
M:C
O:Scotland
R:Strathspey
Z:Clark Bernst + Richard Robinson
%%Page:58 - 2
F:http://richardrobinson.tunebook.org.uk/tune/4023
%%TBL:{"version":1,"type":"tune","id":"4023"}
K:Eb
%%staves {1 2}
V:1
"^Slow when not danced"
E>e.B.G .C.F (!trill!E/D/)(C/B,/) | E>e.B.G .E.b.g.e | \
(g/b/)a/g/ (f/e/)d/e/ fF F(G/A/) | BB,CD [B,E]2 [G,E]2 :|
(e/g/)f/e/ (d/e/)f/g/ affa | ~g>bag fdeB |\
(A/c/)B/A/ (G/B/)A/G/ cF F(G/A/) | BB,CD [B,E]2 [G,E]2 |
(e/g/)f/e/ (d/e/)f/g/ affa | !crescendo(! (g/b/)a/g/ (f/e/)d/c/ !crescendo)! (B/A/)G/F/ (E/D/)C/B,/ |\
A,cG,B CF F!diminuendo(!(G/A/) |BB,CD [EB,]2 [G,E]2 !diminuendo)! |]
V:2 middle=d clef=bass
L:1/4
[Ee][Gg][Aa][Bb] | eege | egab | ba/f/ee & B,,3E,, :| \
ebBb | e'eag | de a/=a/ b/z/ | Ba/f/ee & B,,-B,,E,,E,, | ebBb | eagG | AE A/=A/ B/z/ | Ba/f/ee & B,,-B,,E,,E,, |]

